www/assets/icons/social_distance.svg

<svg xmlns="http://www.w3.org/2000/svg" width="24" height="24" viewBox="0 0 24 24" fill='currentColor'><path d="M4 5c0-1.1.9-2 2-2s2 .9 2 2-.9 2-2 2-2-.9-2-2m4.78 3.58a6.95 6.95 0 0 0-5.56 0A2.01 2.01 0 0 0 2 10.43V11h8v-.57c0-.81-.48-1.53-1.22-1.85M18 7c1.1 0 2-.9 2-2s-.9-2-2-2-2 .9-2 2 .9 2 2 2m2.78 1.58a6.95 6.95 0 0 0-5.56 0A2.01 2.01 0 0 0 14 10.43V11h8v-.57c0-.81-.48-1.53-1.22-1.85M22 17l-4-4v3H6v-3l-4 4 4 4v-3h12v3z"/></svg>

<svg width="24" height="24" viewBox="0 0 24 24" xmlns="http://www.w3.org/2000/svg" fill='currentColor'><path d="M4 5C4 3.9 4.9 3 6 3C7.1 3 8 3.9 8 5C8 6.1 7.1 7 6 7C4.9 7 4 6.1 4 5ZM8.78 8.58C7.93 8.21 6.99 8 6 8C5.01 8 4.07 8.21 3.22 8.58C2.48 8.9 2 9.62 2 10.43V11H10V10.43C10 9.62 9.52 8.9 8.78 8.58ZM18 7C19.1 7 20 6.1 20 5C20 3.9 19.1 3 18 3C16.9 3 16 3.9 16 5C16 6.1 16.9 7 18 7ZM20.78 8.58C19.93 8.21 18.99 8 18 8C17.01 8 16.07 8.21 15.22 8.58C14.48 8.9 14 9.62 14 10.43V11H22V10.43C22 9.62 21.52 8.9 20.78 8.58ZM22 17L18 13V16H6V13L2 17L6 21V18H18V21L22 17Z"/></svg>
